X:93
T:I Wish You All Good Night. WM.093
M:9/8
L:1/8
Q:3/8=144
S:Wm.Mittell’s MS, New Romney,Kent,1799
R:.Slip Jig
O:England
A:Kent
Z:vmp.Chris Partington
W:Set & cast off 2couples up again down the middle,up again,set to your
W:partner and turn(?
K:FMaj
ABc cBA f3|g2G G2G BAG|ABc cBA d3|FGFF2B AGF:|!
|:fga fga g3|a2dd2e fed|fed cBAd3|FGFF2B AGF:|

